mkdocs/extras/csc_logo.svg

<?xml version="1.0" encoding="UTF-8" standalone="no"?><!DOCTYPE svg PUBLIC "-//W3C//DTD SVG 1.1//EN" "http://www.w3.org/Graphics/SVG/1.1/DTD/svg11.dtd"><svg width="100%" height="100%" viewBox="0 0 899 571" version="1.1" xmlns="http://www.w3.org/2000/svg" xmlns:xlink="http://www.w3.org/1999/xlink" xml:space="preserve" xmlns:serif="http://www.serif.com/" style="fill-rule:evenodd;clip-rule:evenodd;stroke-linejoin:round;stroke-miterlimit:2;"><g id="CSC-Logo" serif:id="CSC Logo"><path d="M0,225.408l449.164,-0l0,225.42c-4.687,0.253 -8.983,-1.515 -11.031,-5.325c-1.666,-74.857 -7.235,-127.959 -37.585,-159.938c-48.857,-51.479 -214.848,-42.686 -392.048,-48.823c-4.694,-1.704 -7.374,-5.89 -8.5,-11.334Z" style="fill:#006778;"/><path d="M898.316,225.444l-449.164,-0l0,-225.42c4.687,-0.254 8.983,1.515 11.031,5.325c1.666,74.856 7.235,127.958 37.586,159.937c48.857,51.479 214.848,42.687 392.048,48.824c4.693,1.703 7.373,5.89 8.499,11.334Z" style="fill:#830051;"/><path d="M368.545,514.137c1.686,-1.573 8.069,-11.188 9.021,-13.401c0.436,-1.015 -3.312,0.12 -3.312,0.12c-8.088,-5.658 -16.323,-8.268 -24.699,-7.972c-21.019,1.433 -32.878,13.941 -34.07,39.348c1.456,24.103 15.679,39.873 34.933,38.615c10.152,-0.144 18.163,-3.557 24.86,-9.579c0,0 3.931,0.794 3.478,-0.31c-0.907,-2.212 -7.178,-11.299 -8.958,-12.588c-1.392,-1.007 -1.313,4.603 -1.313,4.603c-3.465,5.076 -9.313,8.258 -18.026,7.615c-14.773,0.131 -22.205,-9.89 -22.981,-28.525c0.274,-20.548 9.451,-27.614 21.966,-29.129c7.566,-0.177 13.649,2.099 18.002,7.24c-0,0 0.096,4.898 1.099,3.963Z" style="fill:#5e6a71;"/><path d="M469.949,514.438c1.475,-2.006 7.038,-13.398 7.719,-15.911c0.325,-1.199 -3.632,1.285 -3.632,1.285c-10.587,-5.657 -14.102,-5.994 -23.434,-6.612c-19.14,-1.268 -28.638,7.255 -29.074,20.979c-0.471,14.839 11.572,20.882 27.412,22.088c11.117,0.846 17.634,5.133 17.328,12.811c-0.336,8.425 -5.974,12.44 -17.435,11.612c-11.94,-1.066 -19.145,-4.265 -21.301,-9.739c-0,0 0.137,-5.097 -0.696,-4.021c-1.45,1.871 -7.096,12.763 -8,15.25c-0.296,0.813 2.575,-0.33 2.575,-0.33c10.109,6.954 18.885,8.836 27.229,9.049c19.048,0.485 28.493,-8.618 29.589,-21.996c1.08,-13.186 -7.768,-21.22 -28.821,-23.992c-10.143,-1.336 -16.115,-3.927 -16.38,-10.749c-0.261,-6.723 4.766,-10.965 16.445,-11.13c7.942,-0.112 14.608,2.357 19.537,7.531c-0,-0 0.141,4.96 0.939,3.875Z" style="fill:#5e6a71;"/><path d="M572.491,514.137c1.686,-1.573 8.069,-11.188 9.021,-13.401c0.436,-1.015 -3.312,0.12 -3.312,0.12c-8.088,-5.658 -16.323,-8.268 -24.699,-7.972c-21.019,1.433 -32.878,13.941 -34.07,39.348c1.456,24.103 15.679,39.873 34.933,38.615c10.152,-0.144 18.163,-3.557 24.86,-9.579c0,0 3.931,0.794 3.478,-0.31c-0.907,-2.212 -7.178,-11.299 -8.958,-12.588c-1.391,-1.007 -1.313,4.603 -1.313,4.603c-3.465,5.076 -9.313,8.258 -18.026,7.615c-14.773,0.131 -22.205,-9.89 -22.98,-28.525c0.273,-20.548 9.45,-27.614 21.965,-29.129c7.566,-0.177 13.649,2.099 18.002,7.24c0,0 0.096,4.898 1.099,3.963Z" style="fill:#5e6a71;"/></g></svg>

<?xml version="1.0" encoding="UTF-8" standalone="no"?>
<!DOCTYPE svg PUBLIC "-//W3C//DTD SVG 1.1//EN" "http://www.w3.org/Graphics/SVG/1.1/DTD/svg11.dtd">
<svg width="100%" height="100%" viewBox="0 0 899 571" version="1.1" xmlns="http://www.w3.org/2000/svg" xmlns:xlink="http://www.w3.org/1999/xlink" xml:space="preserve" xmlns:serif="http://www.serif.com/" style="fill-rule:evenodd;clip-rule:evenodd;stroke-linejoin:round;stroke-miterlimit:2;">
    <g id="CSC-Logo" serif:id="CSC Logo">
        <path d="M0,225.408L449.164,225.408L449.164,450.828C444.477,451.081 440.181,449.313 438.133,445.503C436.467,370.646 430.898,317.544 400.548,285.565C351.691,234.086 185.7,242.879 8.5,236.742C3.806,235.038 1.126,230.852 0,225.408Z" style="fill:white;"/>
        <path d="M898.316,225.444L449.152,225.444L449.152,0.024C453.839,-0.23 458.135,1.539 460.183,5.349C461.849,80.205 467.418,133.307 497.769,165.286C546.626,216.765 712.617,207.973 889.817,214.11C894.51,215.813 897.19,220 898.316,225.444Z" style="fill:white;"/>
        <path d="M368.545,514.137C370.231,512.564 376.614,502.949 377.566,500.736C378.002,499.721 374.254,500.856 374.254,500.856C366.166,495.198 357.931,492.588 349.555,492.884C328.536,494.317 316.677,506.825 315.485,532.232C316.941,556.335 331.164,572.105 350.418,570.847C360.57,570.703 368.581,567.29 375.278,561.268C375.278,561.268 379.209,562.062 378.756,560.958C377.849,558.746 371.578,549.659 369.798,548.37C368.406,547.363 368.485,552.973 368.485,552.973C365.02,558.049 359.172,561.231 350.459,560.588C335.686,560.719 328.254,550.698 327.478,532.063C327.752,511.515 336.929,504.449 349.444,502.934C357.01,502.757 363.093,505.033 367.446,510.174C367.446,510.174 367.542,515.072 368.545,514.137Z" style="fill:white;"/>
        <path d="M469.949,514.438C471.424,512.432 476.987,501.04 477.668,498.527C477.993,497.328 474.036,499.812 474.036,499.812C463.449,494.155 459.934,493.818 450.602,493.2C431.462,491.932 421.964,500.455 421.528,514.179C421.057,529.018 433.1,535.061 448.94,536.267C460.057,537.113 466.574,541.4 466.268,549.078C465.932,557.503 460.294,561.518 448.833,560.69C436.893,559.624 429.688,556.425 427.532,550.951C427.532,550.951 427.669,545.854 426.836,546.93C425.386,548.801 419.74,559.693 418.836,562.18C418.54,562.993 421.411,561.85 421.411,561.85C431.52,568.804 440.296,570.686 448.64,570.899C467.688,571.384 477.133,562.281 478.229,548.903C479.309,535.717 470.461,527.683 449.408,524.911C439.265,523.575 433.293,520.984 433.028,514.162C432.767,507.439 437.794,503.197 449.473,503.032C457.415,502.92 464.081,505.389 469.01,510.563C469.01,510.563 469.151,515.523 469.949,514.438Z" style="fill:white;"/>
        <path d="M572.491,514.137C574.177,512.564 580.56,502.949 581.512,500.736C581.948,499.721 578.2,500.856 578.2,500.856C570.112,495.198 561.877,492.588 553.501,492.884C532.482,494.317 520.623,506.825 519.431,532.232C520.887,556.335 535.11,572.105 554.364,570.847C564.516,570.703 572.527,567.29 579.224,561.268C579.224,561.268 583.155,562.062 582.702,560.958C581.795,558.746 575.524,549.659 573.744,548.37C572.353,547.363 572.431,552.973 572.431,552.973C568.966,558.049 563.118,561.231 554.405,560.588C539.632,560.719 532.2,550.698 531.425,532.063C531.698,511.515 540.875,504.449 553.39,502.934C560.956,502.757 567.039,505.033 571.392,510.174C571.392,510.174 571.488,515.072 572.491,514.137Z" style="fill:white;"/>
    </g>
</svg>
